icons/us-capitol-building.svg

<?xml version="1.0" encoding="UTF-8"?><svg id="uuid-97dabd2f-a249-4b79-8383-85827e92308a" xmlns="http://www.w3.org/2000/svg" viewBox="0 0 50 50"><path d="M47.71,27.71h-10.89v-.98c0-.28-.22-.5-.5-.5h-2.2v-5.08h1c.28,0,.5-.22,.5-.5s-.22-.5-.5-.5h-1v-2.94h1c.28,0,.5-.22,.5-.5s-.22-.5-.5-.5h-1.03c-.23-4.42-3.48-8.04-7.73-8.83v-1.72c0-.79-.53-1.45-1.24-1.66V1.04c0-.28-.22-.5-.5-.5s-.5,.22-.5,.5v2.97c-.72,.22-1.24,.88-1.24,1.66v1.72c-4.25,.79-7.5,4.42-7.73,8.83h-1.03c-.28,0-.5,.22-.5,.5s.22,.5,.5,.5h1v2.94h-1c-.28,0-.5,.22-.5,.5s.22,.5,.5,.5h1v5.08h-2.2c-.28,0-.5,.22-.5,.5v.98H1.54c-.28,0-.5,.22-.5,.5v20c0,.28,.22,.5,.5,.5H47.71c.28,0,.5-.22,.5-.5V28.21c0-.28-.22-.5-.5-.5Zm-31.58-6.56h17v5.08h-2.97v-2.76c0-.28-.22-.5-.5-.5s-.5,.22-.5,.5v2.76h-2.41v-2.76c0-.28-.22-.5-.5-.5s-.5,.22-.5,.5v2.76h-2.41v-2.76c0-.28-.22-.5-.5-.5s-.5,.22-.5,.5v2.76h-2.41v-2.76c0-.28-.22-.5-.5-.5s-.5,.22-.5,.5v2.76h-2.79v-5.08Zm8.5-12.94c4.52,0,8.23,3.54,8.48,8H16.14c.26-4.46,3.97-8,8.49-8Zm8.5,9v2.94h-1.29v-1.1c0-.28-.22-.5-.5-.5s-.5,.22-.5,.5v1.1h-2.35v-1.1c0-.28-.22-.5-.5-.5s-.5,.22-.5,.5v1.1h-2.35v-1.1c0-.28-.22-.5-.5-.5s-.5,.22-.5,.5v1.1h-2.35v-1.1c0-.28-.22-.5-.5-.5s-.5,.22-.5,.5v1.1h-2.35v-1.1c0-.28-.22-.5-.5-.5s-.5,.22-.5,.5v1.1h-1.29v-2.94h17ZM15.62,27.23h20.2v1.96H13.43v-1.96h2.2Zm18.64,14.57h-2.43v-11.61h2.43v11.61Zm1.56,1v1.96H13.43v-1.96h22.39ZM14.99,30.19h2.43v11.61h-2.43v-11.61Zm15.84,0v11.61h-3.79v-5.9c0-1.33-1.08-2.42-2.42-2.42s-2.42,1.08-2.42,2.42v5.9h-3.79v-11.61h12.41Zm-4.79,11.61h-2.84v-5.9c0-.78,.64-1.42,1.42-1.42s1.42,.64,1.42,1.42v5.9Zm-14.92,3.96h27v1.96H11.12v-1.96Zm1.8-15.57h1.06v.69H2.04v-2.17H12.43v.98c0,.28,.22,.5,.5,.5Zm1.06,1.69v9.92h-1.06c-.28,0-.5,.22-.5,.5v2.46h-1.8c-.28,0-.5,.22-.5,.5v2.46H2.04v-15.84H13.99Zm25.14,15.84v-2.46c0-.28-.22-.5-.5-.5h-1.8v-2.46c0-.28-.22-.5-.5-.5h-1.06v-9.92h11.94v15.84h-8.08Zm-3.86-16.84v-.69h1.06c.28,0,.5-.22,.5-.5v-.98h10.39v2.17h-11.94ZM23.88,5.67c0-.41,.33-.74,.74-.74s.74,.33,.74,.74v1.59c-.25-.02-.49-.04-.74-.04s-.5,.02-.74,.04v-1.59Z"/><path d="M44.09,34.22h-5.46c-.28,0-.5,.22-.5,.5v4.23c0,.28,.22,.5,.5,.5h5.46c.28,0,.5-.22,.5-.5v-4.23c0-.28-.22-.5-.5-.5Zm-.5,4.23h-4.46v-3.23h4.46v3.23Z"/><path d="M5.16,39.46h5.46c.28,0,.5-.22,.5-.5v-4.23c0-.28-.22-.5-.5-.5H5.16c-.28,0-.5,.22-.5,.5v4.23c0,.28,.22,.5,.5,.5Zm.5-4.23h4.46v3.23H5.66v-3.23Z"/></svg>

<svg id="bf65175e-d13a-44e0-bbf6-b43bdb0caed8" data-name="ICONS" xmlns="http://www.w3.org/2000/svg" viewBox="0 0 50 50"><path d="M47.71,27.71H36.82v-1a.5.5,0,0,0-.5-.5h-2.2V21.16h1a.5.5,0,0,0,.5-.5.5.5,0,0,0-.5-.5h-1V17.21h1a.5.5,0,0,0,.5-.5.5.5,0,0,0-.5-.5h-1a9.5,9.5,0,0,0-7.73-8.83V5.67A1.75,1.75,0,0,0,25.12,4V1a.5.5,0,0,0-.5-.5.5.5,0,0,0-.5.5V4a1.76,1.76,0,0,0-1.24,1.67V7.38a9.5,9.5,0,0,0-7.73,8.83h-1a.5.5,0,0,0-.5.5.5.5,0,0,0,.5.5h1v2.95h-1a.5.5,0,0,0-.5.5.5.5,0,0,0,.5.5h1v5.07H12.93a.5.5,0,0,0-.5.5v1H1.54a.5.5,0,0,0-.5.5v20a.5.5,0,0,0,.5.5H47.71a.5.5,0,0,0,.5-.5v-20A.5.5,0,0,0,47.71,27.71ZM16.12,21.16h17v5.07h-3V23.47a.5.5,0,0,0-1,0v2.76H26.74V23.47a.5.5,0,0,0-1,0v2.76H23.33V23.47a.5.5,0,0,0-1,0v2.76H19.92V23.47a.5.5,0,0,0-.5-.5.5.5,0,0,0-.5.5v2.76h-2.8ZM24.63,8.21a8.52,8.52,0,0,1,8.48,8h-17A8.52,8.52,0,0,1,24.63,8.21Zm8.49,9v2.95H31.83V19.05a.5.5,0,1,0-1,0v1.11H28.48V19.05a.5.5,0,0,0-.5-.5.5.5,0,0,0-.5.5v1.11H25.13V19.05a.5.5,0,0,0-.5-.5.5.5,0,0,0-.5.5v1.11H21.77V19.05a.5.5,0,0,0-.5-.5.5.5,0,0,0-.5.5v1.11H18.42V19.05a.5.5,0,1,0-1,0v1.11h-1.3V17.21Zm-17.5,10h20.2v2H13.43v-2ZM34.26,41.8H31.83V30.19h2.43Zm1.56,1v2H13.43v-2H35.82ZM15,30.19h2.43V41.8H15Zm15.84,0V41.8H27V35.9a2.42,2.42,0,1,0-4.83,0v5.9H18.42V30.19ZM26,41.8H23.21V35.9a1.42,1.42,0,1,1,2.83,0Zm-14.92,4h27v2h-27Zm1.81-15.57H14v.69H2V28.71H12.43v1A.5.5,0,0,0,12.93,30.19ZM14,31.88V41.8H12.93a.5.5,0,0,0-.5.5v2.46H10.62a.5.5,0,0,0-.5.5v2.45H2V31.88ZM39.13,47.71V45.26a.5.5,0,0,0-.5-.5H36.82V42.3a.5.5,0,0,0-.5-.5H35.26V31.88h12V47.71ZM35.26,30.88v-.69h1.06a.5.5,0,0,0,.5-.5v-1H47.21v2.17ZM23.88,5.67a.75.75,0,1,1,1.49,0V7.25c-.25,0-.49,0-.74,0s-.5,0-.75,0Z"/><path d="M44.09,34.22H38.63a.5.5,0,0,0-.5.5V39a.5.5,0,0,0,.5.5h5.46a.51.51,0,0,0,.5-.5V34.72A.51.51,0,0,0,44.09,34.22Zm-.5,4.24H39.13V35.22h4.46Z"/><path d="M5.16,39.46h5.46a.5.5,0,0,0,.5-.5V34.72a.5.5,0,0,0-.5-.5H5.16a.51.51,0,0,0-.5.5V39A.51.51,0,0,0,5.16,39.46Zm.5-4.24h4.46v3.24H5.66Z"/></svg>
